packages/picasso/src/Icon/svg/preview24.svg

<svg fill="none" xmlns="http://www.w3.org/2000/svg" viewBox="0 0 24 24">
  <path fill-rule="evenodd" clip-rule="evenodd" d="M.0786133 0H4.06551v1H1.07534v3H.0786133V0ZM19.0164 0h3.9869v4h-.9968V1h-2.9901V0ZM1.07534 19H.0786133v4H4.06551v-1H1.07534v-3Zm20.93116 3v-3h.9968v4h-3.9869v-1h2.9901ZM1.16927 11.5c.10354.1534.25673.3691.46031.6271.42674.5409 1.07251 1.2643 1.94381 1.9877C5.31396 15.56 7.94631 17 11.5409 17c3.5947 0 6.227-1.44 7.9676-2.8852.8713-.7234 1.517-1.4468 1.9438-1.9877.2036-.258.3568-.4737.4603-.6271-.1035-.1534-.2567-.3691-.4603-.6271-.4268-.5409-1.0725-1.26425-1.9438-1.9877C17.7679 7.43999 15.1356 6 11.5409 6 7.94631 6 5.31396 7.43999 3.57339 8.8852c-.8713.72345-1.51707 1.4468-1.94381 1.9877-.20358.258-.35677.4737-.46031.6271Zm21.33563 0c.4305-.2519.4304-.2522.4302-.2524l-.0003-.0006-.001-.0016-.0028-.0049-.0096-.0161c-.0082-.0135-.0198-.0326-.0349-.0568-.0302-.0484-.0743-.1176-.1326-.2045-.1164-.1737-.2895-.4186-.5201-.711-.461-.58414-1.1546-1.36075-2.0899-2.1373C18.2714 6.56001 15.4217 5 11.5409 5 7.66012 5 4.81048 6.56001 2.93791 8.1148c-.93525.77655-1.62883 1.55316-2.089805 2.1373-.230683.2924-.403713.5373-.520173.711-.058248.0869-.102398.1561-.132583.2045-.015095.0242-.026703.0433-.03484.0568l-.009609.0161-.002857.0049-.000943.0016-.00035.0006c-.000141.0002-.000269.0005.430206.2524l-.430475-.2519L0 11.5l.146481.2519.430475-.2519c-.430475.2519-.430347.2522-.430206.2524l.00035.0006.000943.0016.002857.0049.009609.0161c.008137.0135.019745.0326.03484.0568.030185.0484.074335.1176.132583.2045.11646.1737.28949.4186.520173.711.460975.5841 1.154555 1.3607 2.089805 2.1373C4.81048 16.44 7.66012 18 11.5409 18c3.8808 0 6.7305-1.56 8.603-3.1148.9353-.7766 1.6289-1.5532 2.0899-2.1373.2306-.2924.4037-.5373.5201-.711.0583-.0869.1024-.1561.1326-.2045.0151-.0242.0267-.0433.0349-.0568l.0096-.0161.0028-.0049.001-.0016.0003-.0006c.0002-.0002.0003-.0005-.4302-.2524Zm0 0 .4305.2519.1465-.2519-.1465-.2519-.4305.2519ZM11.5409 8c-1.92664 0-3.48851 1.567-3.48851 3.5S9.61426 15 11.5409 15c1.9267 0 3.4886-1.567 3.4886-3.5S13.4676 8 11.5409 8Zm-4.48524 3.5c0-2.48528 2.00813-4.5 4.48524-4.5 2.4772 0 4.4853 2.01472 4.4853 4.5 0 2.4853-2.0081 4.5-4.4853 4.5-2.47711 0-4.48524-2.0147-4.48524-4.5Z" fill="#455065"/>
</svg>

<svg width="24" height="24" viewBox="0 0 24 24" fill="none" xmlns="http://www.w3.org/2000/svg">
<g id="Size=24">
<g id="Group 1">
<path id="Vector (Stroke)" fill-rule="evenodd" clip-rule="evenodd" d="M0.0786133 0H4.06551V1H1.07534V4H0.0786133V0Z" fill="#455065"/>
<path id="Vector (Stroke)_2" fill-rule="evenodd" clip-rule="evenodd" d="M19.0164 0H23.0033V4H22.0065V1H19.0164V0Z" fill="#455065"/>
<path id="Vector (Stroke)_3" fill-rule="evenodd" clip-rule="evenodd" d="M0.0786133 19H1.07534V22H4.06551V23H0.0786133V19Z" fill="#455065"/>
<path id="Vector (Stroke)_4" fill-rule="evenodd" clip-rule="evenodd" d="M22.0065 22V19H23.0033V23H19.0164V22H22.0065Z" fill="#455065"/>
<path id="Vector (Stroke)_5" fill-rule="evenodd" clip-rule="evenodd" d="M1.16927 11.5C1.27281 11.6534 1.426 11.8691 1.62958 12.1271C2.05632 12.668 2.70209 13.3914 3.57339 14.1148C5.31396 15.56 7.94631 17 11.5409 17C15.1356 17 17.7679 15.56 19.5085 14.1148C20.3798 13.3914 21.0255 12.668 21.4523 12.1271C21.6559 11.8691 21.8091 11.6534 21.9126 11.5C21.8091 11.3466 21.6559 11.1309 21.4523 10.8729C21.0255 10.332 20.3798 9.60865 19.5085 8.8852C17.7679 7.43999 15.1356 6 11.5409 6C7.94631 6 5.31396 7.43999 3.57339 8.8852C2.70209 9.60865 2.05632 10.332 1.62958 10.8729C1.426 11.1309 1.27281 11.3466 1.16927 11.5ZM22.5049 11.5C22.9354 11.2481 22.9353 11.2478 22.9351 11.2476L22.9348 11.247L22.9338 11.2454L22.931 11.2405L22.9214 11.2244C22.9132 11.2109 22.9016 11.1918 22.8865 11.1676C22.8563 11.1192 22.8122 11.05 22.7539 10.9631C22.6375 10.7894 22.4644 10.5445 22.2338 10.2521C21.7728 9.66796 21.0792 8.89135 20.1439 8.1148C18.2714 6.56001 15.4217 5 11.5409 5C7.66012 5 4.81048 6.56001 2.93791 8.1148C2.00266 8.89135 1.30908 9.66796 0.848105 10.2521C0.617422 10.5445 0.444392 10.7894 0.327932 10.9631C0.269684 11.05 0.225534 11.1192 0.195349 11.1676C0.180254 11.1918 0.168646 11.2109 0.160509 11.2244L0.1509 11.2405L0.148043 11.2454L0.1471 11.247L0.14675 11.2476C0.146609 11.2478 0.146481 11.2481 0.576956 11.5L0.146481 11.2481L0 11.5L0.146481 11.7519L0.576956 11.5C0.146481 11.7519 0.146609 11.7522 0.14675 11.7524L0.1471 11.753L0.148043 11.7546L0.1509 11.7595L0.160509 11.7756C0.168646 11.7891 0.180254 11.8082 0.195349 11.8324C0.225534 11.8808 0.269684 11.95 0.327932 12.0369C0.444392 12.2106 0.617422 12.4555 0.848105 12.7479C1.30908 13.332 2.00266 14.1086 2.93791 14.8852C4.81048 16.44 7.66012 18 11.5409 18C15.4217 18 18.2714 16.44 20.1439 14.8852C21.0792 14.1086 21.7728 13.332 22.2338 12.7479C22.4644 12.4555 22.6375 12.2106 22.7539 12.0369C22.8122 11.95 22.8563 11.8808 22.8865 11.8324C22.9016 11.8082 22.9132 11.7891 22.9214 11.7756L22.931 11.7595L22.9338 11.7546L22.9348 11.753L22.9351 11.7524C22.9353 11.7522 22.9354 11.7519 22.5049 11.5ZM22.5049 11.5L22.9354 11.7519L23.0819 11.5L22.9354 11.2481L22.5049 11.5Z" fill="#455065"/>
<path id="Vector (Stroke)_6" fill-rule="evenodd" clip-rule="evenodd" d="M11.5409 8C9.61426 8 8.05239 9.567 8.05239 11.5C8.05239 13.433 9.61426 15 11.5409 15C13.4676 15 15.0295 13.433 15.0295 11.5C15.0295 9.567 13.4676 8 11.5409 8ZM7.05566 11.5C7.05566 9.01472 9.06379 7 11.5409 7C14.0181 7 16.0262 9.01472 16.0262 11.5C16.0262 13.9853 14.0181 16 11.5409 16C9.06379 16 7.05566 13.9853 7.05566 11.5Z" fill="#455065"/>
</g>
</g>
</svg>
